X: 20504
Q: "Slow and tenderly with expression."
M: 3/4
L: 1/8
K: G
(G>A) |\
e2A2 A(B/c/) | (B2A2)G>A |\
(BdcB)(AG) | D2(dc)(BA) | B2(AGGA) | G4 |]\
(B>c)d2d2 | (d>e)(dc)(BA) | G2g2f2 | g4G2 |\
(B>c)d2d2 |
(ed)(cB)(AG) | G2g2(ga) | g4d2 |\
=f3g(fg) | {f}e2d2(eg) | a2A2A(B/c/) | {B2}A4(G>A) |\



